build/documents/FileTXTSolid.svg

<svg xmlns="http://www.w3.org/2000/svg" fill="none" viewBox="0 0 24 24" focusable="false"><path d="M0 0H24V24H0z"/><path fill="#74767B" fill-rule="evenodd" d="M22 14C22 12.3431 20.6569 11 19 11L19 9.17966C19 8.42148 18.7129 7.69141 18.1965 7.13629L15.2385 3.95662C14.671 3.34655 13.8752 3 13.042 3L8 3C6.34315 3 5 4.34315 5 6L5 11C3.34315 11 2 12.3431 2 14L2 18C2 19.6569 3.34315 21 5 21L19 21C20.6569 21 22 19.6569 22 18L22 14ZM8 4.3L13.042 4.3C13.1461 4.3 13.2491 4.30954 13.3499 4.32811L13.3499 7.04926C13.3499 8.12621 14.223 8.99926 15.2999 8.99926L17.6904 8.99925C17.6968 9.05892 17.7 9.11913 17.7 9.17966L17.7 11L6.3 11L6.3 6C6.3 5.06112 7.06112 4.3 8 4.3ZM16.9447 7.69926L14.6499 5.23254L14.6499 7.04926C14.6499 7.40824 14.9409 7.69926 15.2999 7.69926L16.9447 7.69926ZM8.9924 14.2441C8.9924 14.6031 8.70138 14.8941 8.34239 14.8941L7.78146 14.8941L7.78146 17.7614C7.78146 18.1203 7.49044 18.4114 7.13146 18.4114C6.77247 18.4114 6.48146 18.1203 6.48146 17.7614L6.48146 14.8941L5.92041 14.8941C5.56143 14.8941 5.27041 14.6031 5.27041 14.2441C5.27041 13.8851 5.56143 13.5941 5.92041 13.5941L8.34239 13.5941C8.70138 13.5941 8.9924 13.8851 8.9924 14.2441ZM18.0796 14.8941C18.4386 14.8941 18.7296 14.6031 18.7296 14.2441C18.7296 13.8851 18.4386 13.5941 18.0796 13.5941L15.6576 13.5941C15.2986 13.5941 15.0076 13.8851 15.0076 14.2441C15.0076 14.6031 15.2986 14.8941 15.6576 14.8941L16.2187 14.8941L16.2187 17.7614C16.2187 18.1203 16.5097 18.4114 16.8687 18.4114C17.2276 18.4114 17.5187 18.1203 17.5187 17.7614L17.5187 14.8941L18.0796 14.8941ZM10.3871 13.6985C10.6794 13.49 11.0853 13.5579 11.2938 13.8501L12.029 14.8807L12.7643 13.8501C12.9728 13.5579 13.3787 13.49 13.6709 13.6985C13.9632 13.9069 14.0311 14.3129 13.8226 14.6051L12.8275 16L13.8226 17.3948C14.0311 17.6871 13.9632 18.093 13.6709 18.3015C13.3787 18.51 12.9728 18.4421 12.7643 18.1498L12.029 17.1192L11.2937 18.1498C11.0853 18.4421 10.6793 18.51 10.3871 18.3015C10.0949 18.093 10.027 17.6871 10.2355 17.3948L11.2306 16L10.2355 14.6051C10.027 14.3129 10.0949 13.9069 10.3871 13.6985Z"/></svg>

<svg xmlns="http://www.w3.org/2000/svg" fill="none" viewBox="0 0 24 24" focusable="false"><path fill="#74767B" fill-rule="evenodd" d="M22 14c0-1.66-1.35-3-3-3V9.17c0-.75-.29-1.48-.81-2.04l-2.96-3.18c-.56-.61-1.36-.95-2.19-.95H8C6.34 3 5 4.34 5 6v5c-1.66 0-3 1.34-3 3v4c0 1.65 1.34 3 3 3h14c1.65 0 3-1.35 3-3zM8 4.29h5.04q.15 0 .3.03v2.72c0 1.08.88 1.95 1.95 1.95h2.4c0 .06.01.12.01.18V11H6.3V6c0-.94.76-1.71 1.7-1.71m8.94 3.4-2.3-2.46v1.81c0 .36.3.65.65.65zm-7.95 6.55c0 .36-.29.65-.65.65h-.56v2.87c0 .36-.29.65-.65.65s-.65-.29-.65-.65v-2.87h-.56c-.36 0-.65-.29-.65-.65s.29-.65.65-.65h2.42c.36 0 .65.29.65.65m9.08.65c.36 0 .65-.29.65-.65s-.29-.65-.65-.65h-2.42c-.36 0-.65.29-.65.65s.29.65.65.65h.56v2.87c0 .36.29.65.65.65s.65-.29.65-.65v-2.87zm-7.69-1.2c.29-.2.7-.14.91.16l.73 1.03.74-1.03c.21-.3.61-.36.91-.16.29.21.36.62.15.91l-1 1.4 1 1.39c.21.29.14.7-.15.91-.3.21-.7.14-.91-.16l-.74-1.03-.73 1.03a.648.648 0 1 1-1.06-.75l1-1.39-1-1.4c-.21-.29-.14-.7.15-.91"/></svg>
